!!! OTL: Berkowitz122
!!! Chapter: 1
!!! Section: I
!!! Page: 29
!!! Mode: 
!!! Encoder: DJB
**kern
*staff1
*I"Piano
=1-
*clefC3
*k[b-e-]
*g:
*met(c|)
*M2/2
4G/
4B-/
4d\
4r
=2
4e-\
4c\
4g\
4r
=3
4f#\
4d\
4en\
4f#\
=4
8g\L
8f#\
8g\
8a\J
4b-\
4r
=5
4g\
4d\
4B-/
4r
=6
4g\
4e-\
4c\
8r
8g\
=7
4f#\
4d\
4en\
4f#\
=8
8g\L
8a\
8b-\
8a\J
4g\
4r
==
*-
